src/file.jsx.svg

<svg width="32" height="32" viewBox="0 0 32 32" fill="none" xmlns="http://www.w3.org/2000/svg">
<path d="M6.28 17.79V9.1H9.28V17.81C9.28715 18.4996 9.21331 19.1876 9.06 19.86C8.94252 20.3908 8.73629 20.8979 8.45 21.36C8.18998 21.7594 7.84936 22.1 7.45 22.36C7.04611 22.6224 6.59935 22.8119 6.13 22.92C5.59845 23.0395 5.05477 23.0966 4.51 23.09C4.12841 23.0855 3.74756 23.0555 3.37 23C3.00999 22.953 2.65513 22.8727 2.31 22.76L2.65 20.25C3.14962 20.4161 3.67355 20.4972 4.2 20.49C4.43901 20.4917 4.67736 20.4649 4.91 20.41C5.11551 20.3573 5.309 20.2656 5.48 20.14C5.65888 20.0075 5.80581 19.8367 5.91 19.64C6.03845 19.3949 6.12946 19.132 6.18 18.86C6.24737 18.5073 6.28086 18.149 6.28 17.79Z" fill="#F77737"/>
<path d="M11.22 22.13L11.76 19.61C12.1912 19.8638 12.6511 20.0652 13.13 20.21C13.6381 20.3695 14.1675 20.4504 14.7 20.45C15.1924 20.4805 15.6802 20.3391 16.08 20.05C16.2362 19.9238 16.3615 19.7636 16.4464 19.5816C16.5313 19.3997 16.5736 19.2008 16.57 19C16.5692 18.8121 16.5297 18.6263 16.454 18.4542C16.3783 18.2822 16.268 18.1276 16.13 18C15.6732 17.6299 15.1555 17.3423 14.6 17.15C12.44 16.2567 11.36 14.9233 11.36 13.15C11.3555 12.5981 11.4609 12.0508 11.67 11.54C11.8679 11.0546 12.1641 10.6154 12.54 10.25C12.952 9.83354 13.4504 9.51265 14 9.31C14.5809 9.10293 15.1933 8.99804 15.81 9C16.8524 8.97153 17.8848 9.20899 18.81 9.69L18.21 12.14C17.4683 11.7129 16.6258 11.492 15.77 11.5C15.3181 11.4725 14.8713 11.6073 14.51 11.88C14.3688 11.9902 14.2548 12.1314 14.1768 12.2926C14.0988 12.4539 14.0588 12.6309 14.06 12.81C14.0592 12.971 14.0898 13.1307 14.15 13.28C14.2048 13.4187 14.2826 13.5471 14.38 13.66C14.5095 13.7968 14.6576 13.9146 14.82 14.01C15.0133 14.13 15.2133 14.2433 15.42 14.35L16.24 14.72C17.1355 15.0587 17.9279 15.6238 18.54 16.36C19.0459 17.0558 19.3062 17.9001 19.28 18.76C19.2819 19.203 19.2213 19.644 19.1 20.07C18.8551 20.9103 18.3291 21.6411 17.61 22.14C17.204 22.4141 16.7542 22.617 16.28 22.74C15.7161 22.8921 15.134 22.9661 14.55 22.96C13.9183 22.9606 13.2894 22.8765 12.68 22.71C12.1675 22.5894 11.6755 22.394 11.22 22.13Z" fill="#F77737"/>
<path d="M29.69 23H26.69L25.69 20.46C25.5233 20.0733 25.19 19.2367 24.69 17.95C24.69 18.11 24.6 18.26 24.55 18.4L24.37 18.92L24.21 19.36L24 19.92L23.79 20.46L22.79 23H19.79L23 15.91L19.81 9H22.81L23.81 11.56C24.1233 12.3333 24.4167 13.11 24.69 13.89C24.9033 13.2233 25.1667 12.4467 25.48 11.56L26.48 9H29.48L26.21 15.84L29.69 23Z" fill="#F77737"/>
</svg>

<svg id="Bases" xmlns="http://www.w3.org/2000/svg" viewBox="0 0 32 32"><defs><style>.cls-1{fill:#f77737;}</style></defs><title>file.jsx</title><path class="cls-1" d="M6.28,17.79V9.1h3v8.71a8.81,8.81,0,0,1-.22,2.05,4.83,4.83,0,0,1-.61,1.5,3.42,3.42,0,0,1-1,1,4.12,4.12,0,0,1-1.32.56,7,7,0,0,1-1.62.17A8.53,8.53,0,0,1,3.37,23a5.86,5.86,0,0,1-1.06-.24l.34-2.51a4.71,4.71,0,0,0,1.55.24,3,3,0,0,0,.71-.08,1.66,1.66,0,0,0,.57-.27,1.49,1.49,0,0,0,.43-.5,2.77,2.77,0,0,0,.27-.78A5.63,5.63,0,0,0,6.28,17.79Z"/><path class="cls-1" d="M11.22,22.13l.54-2.52a6.29,6.29,0,0,0,1.37.6,5.23,5.23,0,0,0,1.57.24,2.13,2.13,0,0,0,1.38-.4A1.32,1.32,0,0,0,16.57,19a1.37,1.37,0,0,0-.44-1,5.06,5.06,0,0,0-1.53-.85q-3.24-1.34-3.24-4a4.16,4.16,0,0,1,.31-1.61,3.8,3.8,0,0,1,.87-1.29A4,4,0,0,1,14,9.31,5.34,5.34,0,0,1,15.81,9a6.14,6.14,0,0,1,3,.69l-.6,2.45a4.8,4.8,0,0,0-2.44-.64,1.9,1.9,0,0,0-1.26.38,1.17,1.17,0,0,0-.45.93,1.24,1.24,0,0,0,.09.47,1.33,1.33,0,0,0,.23.38,2,2,0,0,0,.44.35q.29.18.6.34l.82.37a5.54,5.54,0,0,1,2.3,1.64,3.88,3.88,0,0,1,.74,2.4,4.71,4.71,0,0,1-.18,1.31,3.82,3.82,0,0,1-1.49,2.07,4.31,4.31,0,0,1-1.33.6,6.39,6.39,0,0,1-1.73.22,7.07,7.07,0,0,1-1.87-.25A5.36,5.36,0,0,1,11.22,22.13Z"/><path class="cls-1" d="M29.69,23h-3l-1-2.54q-.25-.58-1-2.51h0c0,.16-.09.31-.14.45l-.18.52-.16.44-.21.56-.21.54-1,2.54h-3L23,15.91,19.81,9h3l1,2.56q.47,1.16.88,2.33h0q.32-1,.79-2.33l1-2.56h3l-3.27,6.84Z"/></svg>
